Resources/Public/Images/Icons/Glyphicons/import.svg

<svg xmlns="http://www.w3.org/2000/svg" width="32" height="32"><path d="M5.4 5L9 1.4c.3-.3.6-.4.9-.4.4 0 .7.1.9.4l2 2-5.4 5.3-2-1.9c-.2-.3-.3-.6-.3-.9 0-.4.1-.7.3-.9zm13.3 4.2L24 3.9c.2-.2.4-.3.6-.3s.3.3.3.6l-.1 15.2c0 .3-.1.6-.4.9-.2.3-.5.4-.9.4H8.3c-.4 0-.6-.1-.6-.3s0-.4.3-.6l5.3-5.3-3.9-3.9 5.4-5.4 3.9 4zM3.3 23.4h25.4c.4 0 .7.1.9.4.2.2.4.5.4.9V31H2v-6.4c0-.4.1-.7.4-.9.2-.2.5-.3.9-.3zm21.6 2.5v1.3h2.5v-1.3h-2.5z"/></svg>

<?xml version="1.0" encoding="utf-8"?>
<!-- Generator: Adobe Illustrator 22.1.0, SVG Export Plug-In . SVG Version: 6.00 Build 0)  -->
<svg version="1.1" id="Ebene_1" xmlns="http://www.w3.org/2000/svg" xmlns:xlink="http://www.w3.org/1999/xlink" x="0px" y="0px"
	 width="32px" height="32px" viewBox="0 0 32 32" style="enable-background:new 0 0 32 32;" xml:space="preserve">
<path d="M5.4,5l3.6-3.6C9.3,1.1,9.6,1,9.9,1c0.4,0,0.7,0.1,0.9,0.4l2,2L7.4,8.7l-2-1.9C5.2,6.5,5.1,6.2,5.1,5.9
	C5.1,5.5,5.2,5.2,5.4,5L5.4,5z M18.7,9.2L24,3.9c0.2-0.2,0.4-0.3,0.6-0.3s0.3,0.3,0.3,0.6l-0.1,15.2c0,0.3-0.1,0.6-0.4,0.9
	c-0.2,0.3-0.5,0.4-0.9,0.4l-15.2,0c-0.4,0-0.6-0.1-0.6-0.3s0-0.4,0.3-0.6l5.3-5.3l-3.9-3.9l5.4-5.4L18.7,9.2z M3.3,23.4h25.4
	c0.4,0,0.7,0.1,0.9,0.4c0.2,0.2,0.4,0.5,0.4,0.9V31H2v-6.4c0-0.4,0.1-0.7,0.4-0.9C2.6,23.5,2.9,23.4,3.3,23.4L3.3,23.4z M24.9,25.9
	v1.3h2.5v-1.3H24.9z"/>
</svg>
